public/images/footerLogos.svg

<svg width="400" height="100" viewBox="0 0 400 100" version="1.1" xmlns="http://www.w3.org/2000/svg" xmlns:xlink="http://www.w3.org/1999/xlink"><title>footerLogos</title><desc>Created with Sketch.</desc><g id="Export" stroke="none" stroke-width="1" fill="none" fill-rule="evenodd"><g id="footerLogos" fill="#FFF"><path d="M12,0 L88,0 L88,0 C94.627417,-1.21743675e-15 100,5.372583 100,12 L100,88 L100,88 C100,94.627417 94.627417,100 88,100 L12,100 L12,100 C5.372583,100 9.64111764e-15,94.627417 0,88 L0,12 L0,12 C-8.11624501e-16,5.372583 5.372583,1.21743675e-15 12,0 Z M34.6825,81.245 C34.0445,81.3616 33.5825,81.817 33.6606,82.2702 C33.7431,82.7091 34.3338,82.983 34.9729,82.8664 C35.6219,82.7443 36.0762,82.29 35.9981,81.8478 C35.9156,81.3979 35.3326,81.1317 34.6825,81.245 M29.4443,82.5991 C29.4509,83.0468 29.9844,83.4142 30.6411,83.3988 C31.2956,83.3911 31.8236,83.0138 31.8093,82.5606 C31.8093,82.1107 31.2725,81.7455 30.618,81.7576 C29.9613,81.7697 29.4443,82.1415 29.4443,82.5991 M25.0278,81.5464 C24.9024,81.9809 25.3094,82.4858 25.9309,82.6739 C26.5546,82.8576 27.1728,82.6618 27.3059,82.2317 C27.4357,81.7928 27.0276,81.2912 26.4061,81.1042 C25.778,80.9084 25.1565,81.1119 25.0278,81.5464 M21.4803,78.8371 C21.1778,79.1704 21.312,79.8007 21.7927,80.2429 C22.2624,80.6961 22.9048,80.7863 23.2062,80.4541 C23.5274,80.1241 23.3833,79.4916 22.9048,79.0483 C22.4318,78.5984 21.7861,78.5049 21.4803,78.8371 M19.013,75.6075 C18.6676,75.8418 18.6676,76.4292 19.0053,76.9187 C19.3463,77.4082 19.8985,77.6271 20.2351,77.3928 C20.5794,77.153 20.5794,76.5667 20.2428,76.0684 C19.8985,75.5844 19.354,75.3721 19.013,75.6075 M16.7811,72.8267 C16.5149,73.0731 16.582,73.5868 16.9428,73.9696 C17.2904,74.3546 17.803,74.4668 18.0659,74.2248 C18.3398,73.9784 18.2694,73.4691 17.9086,73.0808 C17.5489,72.698 17.0517,72.5836 16.7811,72.8267 M14.4007,71.0799 C14.272,71.3538 14.4942,71.7267 14.8946,71.9071 C15.2862,72.0952 15.7163,72.0127 15.8373,71.7388 C15.9759,71.4649 15.7471,71.0887 15.3478,70.9094 C14.9496,70.7213 14.5184,70.7994 14.4007,71.0799 M32.95,100 C36.3072,100 36.382,98.7735 36.382,97.3215 C36.382,96.0092 36.3314,91.6752 36.3072,87.0783 C21.0018,90.4069 17.7722,80.5872 17.7722,80.5872 C15.2697,74.2292 11.6639,72.5374 11.6639,72.5374 C6.6721,69.123 12.0401,69.1934 12.0401,69.1934 C17.5643,69.5806 20.4738,74.8628 20.4738,74.8628 C25.3798,83.2734 33.3438,80.8413 36.4832,79.4355 C36.9771,75.8814 38.4016,73.4537 39.9757,72.0787 C27.7558,70.6883 14.91,65.9715 14.91,44.8911 C14.91,38.8851 17.0594,33.9769 20.5794,30.1247 C20.0085,28.7387 18.1242,23.143 21.1129,15.5651 C21.1129,15.5651 25.7318,14.0878 36.2445,21.2048 C40.6335,19.986 45.3393,19.3744 50.0143,19.3535 C54.6893,19.3744 59.4006,19.986 63.7962,21.2048 C74.2979,14.0878 78.9102,15.5651 78.9102,15.5651 C81.9055,23.143 80.0212,28.7387 79.4503,30.1247 C82.978,33.9769 85.112,38.8851 85.112,44.8911 C85.112,66.0221 72.2431,70.674 59.9913,72.0358 C61.9647,73.743 63.7225,77.0914 63.7225,82.224 C63.7225,89.5852 63.6598,95.5087 63.6598,97.3215 C63.6598,98.7856 63.7962,100 67.6,100 C67.7617,100.0077 32.7278,99.9923 32.95,100 Z" id="GitHub"/><path d="M288.463538,99.998001 L211.535463,99.998001 C205.165521,99.998001 200,94.8314809 200,88.4555413 L200,11.535463 C200,5.16352151 205.165521,0 211.535463,0 L288.463538,0 C294.835479,0 300,5.16352151 300,11.535463 L300,88.4555413 C300,94.8314809 294.835479,99.998001 288.463538,99.998001 L288.463538,99.998001 Z M250,30.7682312 C239.377099,30.7682312 230.768231,39.3751 230.768231,49.9970014 C230.768231,60.6169039 239.377099,69.2297697 250,69.2297697 C260.620902,69.2297697 269.231769,60.6169039 269.231769,49.9970014 C269.231769,39.3751 260.620902,30.7682312 250,30.7682312 L250,30.7682312 Z M288.463538,15.3816168 C288.463538,13.2576363 286.740365,11.535463 284.613386,11.535463 L273.076923,11.535463 C270.952943,11.535463 269.231769,13.2576363 269.231769,15.3816168 L269.231769,26.9220774 C269.231769,29.0440589 270.952943,30.7682312 273.076923,30.7682312 L284.613386,30.7682312 C286.740365,30.7682312 288.463538,29.0440589 288.463538,26.9220774 L288.463538,15.3816168 Z M288.463538,42.3026947 L279.757716,42.3026947 C280.391412,44.764513 280.766232,47.3372781 280.766232,49.9970014 C280.766232,66.9928434 266.991844,80.7672317 250,80.7672317 C233.007157,80.7672317 219.231769,66.9928434 219.231769,49.9970014 C219.231769,47.3372781 219.607588,44.764513 220.242284,42.3026947 L211.535463,42.3026947 L211.535463,84.6133856 C211.535463,86.7343675 213.258636,88.4555413 215.385615,88.4555413 L284.613386,88.4555413 C286.740365,88.4555413 288.463538,86.7343675 288.463538,84.6133856 L288.463538,42.3026947 Z" id="Insta"/><path d="M112,0 L188,0 L188,0 C194.627417,-1.21743675e-15 200,5.372583 200,12 L200,88 L200,88 C200,94.627417 194.627417,100 188,100 L112,100 L112,100 C105.372583,100 100,94.627417 100,88 L100,12 L100,12 C100,5.372583 105.372583,1.21743675e-15 112,0 Z M185.929,84.9306 L170.861,84.9306 L170.861,62.1506 C170.861,56.6156 170.842,49.4966 163.236,49.4966 C155.513,49.4966 154.423,55.5236 154.423,61.7486 L154.423,84.9306 L139.355,84.9306 L139.355,37.6706 L153.738,37.6706 L153.738,43.8356 L153.788,43.8356 C155.767,40.4106 160.764,36.2866 167.984,36.2866 C183,36.2866 185.929,46.3276 185.929,59.1796 L185.929,84.9306 Z M122.622,31.1106 C117.856,31.1106 114.012,27.2566 114.012,22.5086 C114.012,17.7666 117.856,13.9126 122.622,13.9126 C127.371,13.9126 131.225,17.7666 131.225,22.5086 C131.225,27.2566 127.371,31.1106 122.622,31.1106 L122.622,31.1106 Z M115.383,84.9306 L130.451,84.9306 L130.451,37.6706 L115.383,37.6706 L115.383,84.9306 Z" id="LinkedIn"/><g id="Spotify" transform="translate(300.000000, 0.000000)"><path d="M8,0 L92,0 C96.418278,-8.11624501e-16 100,3.581722 100,8 L100,92 C100,96.418278 96.418278,100 92,100 L8,100 C3.581722,100 5.41083001e-16,96.418278 0,92 L0,8 L0,8 C-5.41083001e-16,3.581722 3.581722,8.11624501e-16 8,0 L8,0 Z M50.12674,92.6805714 C73.9006277,92.6805714 93.1491429,73.4320563 93.1491429,49.6581686 C93.1491429,25.9290866 73.9006277,6.68057143 50.12674,6.68057143 C26.397658,6.68057143 7.14914286,25.9290866 7.14914286,49.6581686 C7.14914286,73.4320563 26.397658,92.6805714 50.12674,92.6805714 Z" id="Combined-Shape"/><path d="M74.1580165,53.3628319 C64.8802488,48.5575221 54.4139333,46 43.8766598,46 C37.98714,46 32.1330991,46.7610619 26.5185418,48.3097345 C24.6825017,48.7964602 23.6092609,51.9115044 24.1325767,53.7079646 C24.6204134,55.539823 26.4919325,56.6106195 28.3279726,56.0884956 C33.3482561,54.7079646 38.6168928,54.0176991 43.8766598,54.0176991 C53.4471296,54.0176991 62.591851,56.2300885 71.0447312,60.619469 C71.5325679,60.8938053 72.0824929,61 72.6058087,61 C73.8475749,61 75.0272529,59.0973451 75.6215267,57.9557522 C76.4818933,56.300885 75.8255312,54.2212389 74.1580165,53.3628319 Z" id="Fill-2"/><path d="M44.2241329,29 C37.7348032,29 31.2543026,29.7894737 24.9415533,31.3245614 C22.8755627,31.8421053 21.5953548,34.3421053 22.116267,36.4035088 C22.6283501,38.4561404 24.7384859,39.7192982 26.8044766,39.2105263 C32.4903654,37.8070175 38.3528346,37.122807 44.25062,37.122807 C55.5341074,37.122807 66.3231698,39.622807 76.3970815,44.5877193 C76.9179937,44.8596491 77.5360251,45 78.0834244,45 C79.5402126,45 80.9175398,43.8333333 81.6062033,42.4649123 C82.5332504,40.5789474 81.7739547,38.245614 79.8492283,37.2894737 C68.7070052,31.7719298 56.7348541,29 44.2241329,29 Z" id="Fill-3"/><path d="M43.430754,62 C38.1917436,62 33.0232923,62.8138472 28.0576983,64.3866754 C26.5142189,64.8896146 25.6498704,68.2821685 26.1349639,69.8549967 C26.6112376,71.4644024 28.234096,72.3514043 29.7863954,71.8576094 C34.1963367,70.4219464 38.7738559,69.7086871 43.430754,69.7086871 C51.2098905,69.7086871 58.9272879,71.7478772 65.6833181,75.6433703 L67.0944993,76 C68.1264256,76 69.1318923,75.4239059 69.6434455,74.4271718 C70.4019554,73.0006532 69.9168618,69.4617897 68.5056806,68.6387982 C60.8588422,64.3135206 52.2153572,62 43.430754,62 Z" id="Fill-4"/></g></g></g></svg>

<svg width="400" height="100" xmlns="http://www.w3.org/2000/svg"><g fill="#FFF" fill-rule="evenodd"><path d="M12 0h76c6.627 0 12 5.373 12 12v76c0 6.627-5.373 12-12 12H12c-6.627 0-12-5.373-12-12V12C0 5.373 5.373 0 12 0zm22.682 81.245c-.638.117-1.1.572-1.021 1.025.082.44.673.713 1.312.596.649-.122 1.103-.576 1.025-1.018-.082-.45-.665-.716-1.316-.603m-5.238 1.354c.007.448.54.815 1.197.8.655-.008 1.183-.385 1.168-.838 0-.45-.537-.816-1.191-.803-.657.012-1.174.383-1.174.841m-4.416-1.053c-.126.435.281.94.903 1.128.624.184 1.242-.012 1.375-.442.13-.44-.278-.94-.9-1.128-.628-.196-1.25.008-1.378.442m-3.548-2.709c-.302.333-.168.964.313 1.406.47.453 1.112.543 1.413.211.321-.33.177-.962-.301-1.406-.473-.45-1.119-.543-1.425-.21m-2.467-3.23c-.345.234-.345.821-.008 1.31.341.49.893.71 1.23.475.344-.24.344-.826.008-1.325-.345-.484-.889-.696-1.23-.46m-2.232-2.781c-.266.246-.199.76.162 1.143.347.385.86.497 1.123.255.274-.247.203-.756-.157-1.144-.36-.383-.857-.497-1.128-.254m-2.38-1.747c-.129.274.093.647.494.827.391.188.821.106.942-.168.139-.274-.09-.65-.49-.83-.397-.188-.829-.11-.946.17M32.95 100c3.357 0 3.432-1.227 3.432-2.678 0-1.313-.05-5.647-.075-10.244-15.305 3.329-18.535-6.49-18.535-6.49-2.502-6.359-6.108-8.05-6.108-8.05-4.992-3.415.376-3.345.376-3.345 5.524.388 8.434 5.67 8.434 5.67 4.906 8.41 12.87 5.978 16.01 4.573.493-3.555 1.918-5.982 3.492-7.357-12.22-1.39-25.066-6.107-25.066-27.188 0-6.006 2.15-10.914 5.67-14.766-.571-1.386-2.456-6.982.533-14.56 0 0 4.619-1.477 15.132 5.64 4.389-1.219 9.094-1.83 13.77-1.851 4.674.02 9.386.632 13.781 1.85 10.502-7.116 15.114-5.639 15.114-5.639 2.996 7.578 1.111 13.174.54 14.56 3.528 3.852 5.662 8.76 5.662 14.766 0 21.131-12.869 25.783-25.12 27.145 1.973 1.707 3.73 5.055 3.73 10.188 0 7.361-.062 13.285-.062 15.097 0 1.465.136 2.679 3.94 2.679.162.008-34.872-.008-34.65 0zM288.464 99.998h-76.929c-6.37 0-11.535-5.167-11.535-11.542v-76.92C200 5.163 205.166 0 211.535 0h76.929C294.835 0 300 5.164 300 11.535v76.92c0 6.376-5.165 11.543-11.536 11.543zM250 30.768c-10.623 0-19.232 8.607-19.232 19.229 0 10.62 8.61 19.233 19.232 19.233 10.62 0 19.232-8.613 19.232-19.233 0-10.622-8.611-19.229-19.232-19.229zm38.464-15.386a3.848 3.848 0 0 0-3.85-3.847h-11.537a3.846 3.846 0 0 0-3.845 3.847v11.54a3.847 3.847 0 0 0 3.845 3.846h11.536a3.85 3.85 0 0 0 3.85-3.846v-11.54zm0 26.92h-8.706c.633 2.463 1.008 5.035 1.008 7.695 0 16.996-13.774 30.77-30.766 30.77-16.993 0-30.768-13.774-30.768-30.77 0-2.66.376-5.232 1.01-7.694h-8.707v42.31a3.846 3.846 0 0 0 3.85 3.843h69.228a3.846 3.846 0 0 0 3.85-3.843v-42.31zM112 0h76c6.627 0 12 5.373 12 12v76c0 6.627-5.373 12-12 12h-76c-6.627 0-12-5.373-12-12V12c0-6.627 5.373-12 12-12zm73.929 84.93h-15.068V62.15c0-5.534-.019-12.653-7.625-12.653-7.723 0-8.813 6.027-8.813 12.252V84.93h-15.068V37.67h14.383v6.165h.05c1.979-3.425 6.976-7.55 14.196-7.55 15.016 0 17.945 10.042 17.945 22.894v25.75zm-63.307-53.82a8.6 8.6 0 0 1-8.61-8.601c0-4.742 3.844-8.596 8.61-8.596 4.749 0 8.603 3.854 8.603 8.596 0 4.748-3.854 8.602-8.603 8.602zm-7.239 53.82h15.068V37.67h-15.068v47.26zM308 0h84a8 8 0 0 1 8 8v84a8 8 0 0 1-8 8h-84a8 8 0 0 1-8-8V8a8 8 0 0 1 8-8zm42.127 92.68c23.774 0 43.022-19.248 43.022-43.022 0-23.729-19.248-42.977-43.022-42.977-23.73 0-42.978 19.248-42.978 42.977 0 23.774 19.249 43.023 42.978 43.023z"/><path d="M374.158 53.363C364.88 48.558 354.414 46 343.877 46c-5.89 0-11.744.761-17.358 2.31-1.836.486-2.91 3.602-2.386 5.398a3.368 3.368 0 0 0 4.195 2.38c5.02-1.38 10.289-2.07 15.549-2.07 9.57 0 18.715 2.212 27.168 6.601.488.275 1.037.381 1.56.381 1.243 0 2.422-1.903 3.017-3.044a3.42 3.42 0 0 0-1.464-4.593zM344.224 29c-6.49 0-12.97.79-19.282 2.325-2.066.517-3.347 3.017-2.826 5.079.512 2.052 2.622 3.315 4.688 2.807 5.686-1.404 11.549-2.088 17.447-2.088 11.283 0 22.072 2.5 32.146 7.465.521.272 1.139.412 1.686.412 1.457 0 2.835-1.167 3.523-2.535a3.882 3.882 0 0 0-1.757-5.176C368.707 31.772 356.735 29 344.224 29zM343.43 62c-5.238 0-10.407.814-15.372 2.387-1.544.503-2.408 3.895-1.923 5.468.476 1.61 2.1 2.496 3.651 2.003a43.933 43.933 0 0 1 13.645-2.15c7.779 0 15.496 2.04 22.252 5.935l1.411.357a2.876 2.876 0 0 0 2.55-1.573c.758-1.426.273-4.965-1.138-5.788C360.859 64.314 352.216 62 343.43 62z"/></g></svg>
